;START_OF_HEADER
;HEADER_VERSION:0.1
;FLAVOR:Griffin
;GENERATOR.NAME:Cura_SteamEngine
;GENERATOR.VERSION:3.6.0
;GENERATOR.BUILD_DATE:2018-11-12
;TARGET_MACHINE.NAME:Ultimaker 3
;EXTRUDER_TRAIN.0.INITIAL_TEMPERATURE:215
;EXTRUDER_TRAIN.0.MATERIAL.VOLUME_USED:59036
;EXTRUDER_TRAIN.0.MATERIAL.GUID:506c9f0d-e3aa-4bd4-b2d2-23e2425b1aa9
;EXTRUDER_TRAIN.0.NOZZLE.DIAMETER:0.8
;EXTRUDER_TRAIN.0.NOZZLE.NAME:AA 0.8
;BUILD_PLATE.TYPE:glass
;BUILD_PLATE.INITIAL_TEMPERATURE:60
;PRINT.TIME:11941
;PRINT.SIZE.MIN.X:9
;PRINT.SIZE.MIN.Y:6
;PRINT.SIZE.MIN.Z:0.27
;PRINT.SIZE.MAX.X:195.51
;PRINT.SIZE.MAX.Y:197.058
;PRINT.SIZE.MAX.Z:15.07
;END_OF_HEADER
;Generated with Cura_SteamEngine 3.6.0
T0
M82 ;absolute extrusion mode

G92 E0
M109 S215
G0 F15000 X9 Y6 Z2
G280
G1 F1500 E-5
;LAYER_COUNT:75
;LAYER:0
M107
M204 S625
M205 X30 Y30
G0 F6666.7 X52.376 Y32.528 Z0.27
M204 S500
M205 X25 Y25
;TYPE:SKIRT
G1 F900 E0
G1 F1200 X52.79 Y31.921 E0.02799
G1 X53.267 Y31.363 E0.05595
G1 X53.803 Y30.86 E0.08395
G1 X54.39 Y30.418 E0.11194
G1 X55.021 Y30.043 E0.1399
G1 X55.689 Y29.738 E0.16787
G1 X56.387 Y29.508 E0.19586
G1 X57.106 Y29.355 E0.22387
G1 X58.15 Y29.274 E0.26375
G1 X107.901 Y29.274 E2.15884
G1 X108.634 Y29.314 E2.1868
G1 X109.359 Y29.433 E2.21478
G1 X110.067 Y29.631 E2.24279
G1 X110.749 Y29.904 E2.27077
G1 X111.397 Y30.25 E2.29875
G1 X112.004 Y30.664 E2.32674
G1 X112.562 Y31.141 E2.3547
G1 X113.065 Y31.677 E2.3827
G1 X113.507 Y32.264 E2.41069
G1 X113.882 Y32.895 E2.43865
G1 X114.187 Y33.563 E2.46662
G1 X114.417 Y34.261 E2.49462
G1 X114.57 Y34.98 E2.52262
G1 X114.651 Y36.024 E2.5625
G1 X114.651 Y186.024 E8.27621
G1 X114.611 Y186.757 E8.30417
G1 X114.492 Y187.482 E8.33216
G1 X114.294 Y188.19 E8.36016
G1 X114.021 Y188.872 E8.38814
G1 X113.675 Y189.52 E8.41613
G1 X113.261 Y190.127 E8.44411
G1 X112.784 Y190.685 E8.47208
G1 X112.248 Y191.188 E8.50008
G1 X111.661 Y191.63 E8.52807
G1 X111.03 Y192.005 E8.55603
G1 X110.362 Y192.31 E8.584
G1 X109.664 Y192.54 E8.61199
G1 X108.945 Y192.693 E8.63999
G1 X107.901 Y192.774 E8.67988
G1 X58.15 Y192.774 E10.57496
G1 X57.417 Y192.734 E10.60293
G1 X56.692 Y192.615 E10.63091
G1 X55.984 Y192.417 E10.65891
G1 X55.302 Y192.144 E10.6869
G1 X54.654 Y191.798 E10.71488
G1 X54.047 Y191.384 E10.74287
G1 X53.489 Y190.907 E10.77083
G1 X52.986 Y190.371 E10.79883
G1 X52.544 Y189.784 E10.82682
G1 X52.169 Y189.153 E10.85478
G1 X51.864 Y188.485 E10.88275
G1 X51.634 Y187.787 E10.91074
G1 X51.481 Y187.068 E10.93874
G1 X51.4 Y186.024 E10.97863
G1 X51.4 Y36.024 E16.69234
G1 X51.44 Y35.291 E16.7203
G1 X51.559 Y34.566 E16.74829
G1 X51.757 Y33.858 E16.77629
G1 X52.03 Y33.176 E16.80427
G1 X52.376 Y32.528 E16.83225
M204 S625
M205 X30 Y30
G0 F6666.7 X53.272 Y32.795
M204 S500
M205 X25 Y25
G1 F1200 X53.682 Y32.248 E16.85829
G1 X54.153 Y31.752 E16.88435
G1 X54.679 Y31.315 E16.9104
G1 X55.253 Y30.942 E16.93647
G1 X55.865 Y30.639 E16.96248
G1 X56.509 Y30.409 E16.98853
G1 X57.176 Y30.256 E17.0146
G1 X58.15 Y30.174 E17.05183
G1 X107.901 Y30.174 E18.94691
G1 X108.584 Y30.214 E18.97298
G1 X109.257 Y30.333 E18.99901
G1 X109.912 Y30.53 E19.02506
G1 X110.539 Y30.803 E19.05111
G1 X111.13 Y31.146 E19.07714
G1 X111.677 Y31.556 E19.10318
G1 X112.173 Y32.027 E19.12923
G1 X112.61 Y32.553 E19.15528
G1 X112.983 Y33.127 E19.18136
G1 X113.286 Y33.739 E19.20737
G1 X113.516 Y34.383 E19.23342
G1 X113.669 Y35.05 E19.25949
G1 X113.751 Y36.024 E19.29672
G1 X113.751 Y186.024 E25.01042
G1 X113.711 Y186.707 E25.03649
G1 X113.592 Y187.38 E25.06252
G1 X113.395 Y188.035 E25.08857
G1 X113.122 Y188.662 E25.11462
G1 X112.779 Y189.253 E25.14065
G1 X112.369 Y189.8 E25.16669
G1 X111.898 Y190.296 E25.19274
G1 X111.372 Y190.733 E25.21879
G1 X110.798 Y191.106 E25.24487
G1 X110.186 Y191.409 E25.27088
G1 X109.542 Y191.639 E25.29693
G1 X108.875 Y191.792 E25.323
G1 X107.901 Y191.874 E25.36023
G1 X58.15 Y191.874 E27.25531
G1 X57.467 Y191.834 E27.28137
G1 X56.794 Y191.715 E27.30741
G1 X56.139 Y191.518 E27.33346
G1 X55.512 Y191.245 E27.35951
G1 X54.921 Y190.902 E27.38554
G1 X54.374 Y190.492 E27.41158
G1 X53.878 Y190.021 E27.43763
G1 X53.441 Y189.495 E27.46368
G1 X53.068 Y188.921 E27.48976
G1 X52.765 Y188.309 E27.51577
G1 X52.535 Y187.665 E27.54182
G1 X52.382 Y186.998 E27.56788
G1 X52.3 Y186.024 E27.60512
G1 X52.3 Y36.024 E33.31882
G1 X52.34 Y35.341 E33.34488
G1 X52.459 Y34.668 E33.37092
G1 X52.656 Y34.013 E33.39697
G1 X52.929 Y33.386 E33.42302
G1 X53.272 Y32.795 E33.44905
M204 S625
M205 X30 Y30
G0 F6666.7 X53.827 Y33.614
M204 S500
M205 X25 Y25
G1 F1200 X54.167 Y33.085 E33.473
G1 X54.572 Y32.603 E33.49698
G1 X55.035 Y32.177 E33.52095
G1 X55.548 Y31.813 E33.54491
G1 X56.102 Y31.517 E33.56883
G1 X56.69 Y31.294 E33.59279
G1 X57.302 Y31.147 E33.61676
G1 X58.15 Y31.074 E33.64918
G1 X107.901 Y31.074 E35.54427
G1 X108.529 Y31.114 E35.56824
G1 X109.146 Y31.233 E35.59217
G1 X109.744 Y31.43 E35.61616
G1 X110.311 Y31.701 E35.6401
G1 X110.84 Y32.041 E35.66405
G1 X111.322 Y32.446 E35.68803
G1 X111.748 Y32.909 E35.712
G1 X112.112 Y33.422 E35.73596
G1 X112.408 Y33.976 E35.75988
G1 X112.631 Y34.564 E35.78384
G1 X112.778 Y35.176 E35.80781
G1 X112.851 Y36.024 E35.84023
G1 X112.851 Y186.024 E41.55394
G1 X112.811 Y186.652 E41.57791
G1 X112.692 Y187.269 E41.60184
G1 X112.495 Y187.867 E41.62583
G1 X112.224 Y188.434 E41.64976
G1 X111.884 Y188.963 E41.67372
G1 X111.479 Y189.445 E41.6977
G1 X111.016 Y189.871 E41.72166
G1 X110.503 Y190.235 E41.74562
G1 X109.949 Y190.531 E41.76955
G1 X109.361 Y190.754 E41.7935
G1 X108.749 Y190.901 E41.81748
G1 X107.901 Y190.974 E41.8499
G1 X58.15 Y190.974 E43.74498
G1 X57.522 Y190.934 E43.76895
G1 X56.905 Y190.815 E43.79289
G1 X56.307 Y190.618 E43.81687
G1 X55.74 Y190.347 E43.84081
G1 X55.211 Y190.007 E43.86476
G1 X54.729 Y189.602 E43.88875
G1 X54.303 Y189.139 E43.91271
G1 X53.939 Y188.626 E43.93667
G1 X53.643 Y188.072 E43.9606
G1 X53.42 Y187.484 E43.98455
G1 X53.273 Y186.872 E44.00853
G1 X53.2 Y186.024 E44.04095
G1 X53.2 Y36.024 E49.75465
G1 X53.24 Y35.396 E49.77862
G1 X53.359 Y34.779 E49.80256
G1 X53.556 Y34.181 E49.82654
G1 X53.827 Y33.614 E49.85048
M204 S625
M205 X30 Y30
G0 F6666.7 X54.724 Y33.865
M204 S500
M205 X25 Y25
G1 F1200 X55.06 Y33.406 E49.87215
G1 X55.457 Y32.999 E49.8938
G1 X55.908 Y32.651 E49.9155
G1 X56.402 Y32.371 E49.93713
G1 X56.931 Y32.162 E49.9588
G1 X57.485 Y32.029 E49.9805
G1 X58.15 Y31.974 E50.00592
G1 X107.901 Y31.974 E51.901
G1 X108.468 Y32.014 E51.92265
G1 X109.025 Y32.133 E51.94435
G1 X109.559 Y32.329 E51.96602
G1 X110.06 Y32.598 E51.98768
G1 X110.519 Y32.934 E52.00935
G1 X110.926 Y33.331 E52.031
G1 X111.274 Y33.782 E52.0527
G1 X111.554 Y34.276 E52.07433
G1 X111.763 Y34.805 E52.096
G1 X111.896 Y35.359 E52.1177
G1 X111.951 Y36.024 E52.14312
G1 X111.951 Y186.024 E57.85682
G1 X111.911 Y186.591 E57.87848
G1 X111.792 Y187.148 E57.90017
G1 X111.596 Y187.682 E57.92184
G1 X111.327 Y188.183 E57.9435
G1 X110.991 Y188.642 E57.96517
G1 X110.594 Y189.049 E57.98682
G1 X110.143 Y189.397 E58.00852
G1 X109.649 Y189.677 E58.03015
G1 X109.12 Y189.886 E58.05182
G1 X108.566 Y190.019 E58.07352
G1 X107.901 Y190.074 E58.09894
G1 X58.15 Y190.074 E59.99402
G1 X57.583 Y190.034 E60.01567
G1 X57.026 Y189.915 E60.03737
G1 X56.492 Y189.719 E60.05904
G1 X55.991 Y189.45 E60.0807
G1 X55.532 Y189.114 E60.10237
G1 X55.125 Y188.717 E60.12402
G1 X54.777 Y188.266 E60.14572
G1 X54.497 Y187.772 E60.16735
G1 X54.288 Y187.243 E60.18902
G1 X54.155 Y186.689 E60.21072
G1 X54.1 Y186.024 E60.23614
G1 X54.1 Y36.024 E65.94984
G1 X54.14 Y35.457 E65.97149
G1 X54.259 Y34.9 E65.99319
G1 X54.455 Y34.366 E66.01486
G1 X54.724 Y33.865 E66.03652
M204 S625
M205 X30 Y30
G0 F6666.7 X55.353 Y34.574
M204 S500
M205 X25 Y25
G1 F1200 X55.619 Y34.149 E66.05562
G1 X55.949 Y33.771 E66.07473
G1 X56.334 Y33.45 E66.09382
G1 X56.766 Y33.194 E66.11295
G1 X57.233 Y33.011 E66.13206
G1 X57.722 Y32.903 E66.15113
G1 X58.15 Y32.874 E66.16747
G1 X107.901 Y32.874 E68.06256
G1 X108.401 Y32.914 E68.08166
G1 X108.888 Y33.033 E68.10076
G1 X109.351 Y33.227 E68.11988
G1 X109.776 Y33.493 E68.13898
G1 X110.154 Y33.823 E68.15809
G1 X110.475 Y34.208 E68.17719
G1 X110.731 Y34.64 E68.19632
G1 X110.914 Y35.107 E68.21542
G1 X111.022 Y35.596 E68.2345
G1 X111.051 Y36.024 E68.25084
G1 X111.051 Y186.024 E73.96454
G1 X111.011 Y186.524 E73.98365
G1 X110.892 Y187.011 E74.00275
G1 X110.698 Y187.474 E74.02187
G1 X110.432 Y187.899 E74.04097
G1 X110.102 Y188.277 E74.06008
G1 X109.717 Y188.598 E74.07917
G1 X109.285 Y188.854 E74.0983
G1 X108.818 Y189.037 E74.11741
G1 X108.329 Y189.145 E74.13648
G1 X107.901 Y189.174 E74.15282
G1 X58.15 Y189.174 E76.04791
G1 X57.65 Y189.134 E76.06701
G1 X57.163 Y189.015 E76.08611
G1 X56.7 Y188.821 E76.10523
G1 X56.275 Y188.555 E76.12433
G1 X55.897 Y188.225 E76.14344
G1 X55.576 Y187.84 E76.16254
G1 X55.32 Y187.408 E76.18167
G1 X55.137 Y186.941 E76.20077
G1 X55.029 Y186.452 E76.21985
G1 X55 Y186.024 E76.23619
G1 X55 Y36.024 E81.94989
G1 X55.04 Y35.524 E81.969
G1 X55.159 Y35.037 E81.9881
G1 X55.353 Y34.574 E82.00722
M204 S625
M205 X30 Y30
G0 F6666.7 X56.251 Y34.818
M204 S500
M205 X25 Y25
G1 F1200 X56.511 Y34.483 E82.02337
G1 X56.829 Y34.203 E82.03951
G1 X57.194 Y33.987 E82.05567
G1 X57.593 Y33.844 E82.07181
G1 X58.15 Y33.774 E82.0932
G1 X107.901 Y33.774 E83.98828
G1 X108.323 Y33.814 E84.00443
G1 X108.73 Y33.932 E84.02057
G1 X109.107 Y34.125 E84.0367
G1 X109.442 Y34.385 E84.05285
G1 X109.722 Y34.703 E84.06899
G1 X109.938 Y35.068 E84.08515
G1 X110.081 Y35.467 E84.10129
G1 X110.151 Y36.024 E84.12268
G1 X110.151 Y186.024 E89.83638
G1 X110.111 Y186.446 E89.85253
G1 X109.993 Y186.853 E89.86867
G1 X109.8 Y187.23 E89.88481
G1 X109.54 Y187.565 E89.90096
G1 X109.222 Y187.845 E89.9171
G1 X108.857 Y188.061 E89.93325
G1 X108.458 Y188.204 E89.9494
G1 X107.901 Y188.274 E89.97078
G1 X58.15 Y188.274 E91.86587
G1 X57.728 Y188.234 E91.88201
G1 X57.321 Y188.116 E91.89815
G1 X56.944 Y187.923 E91.91429
G1 X56.609 Y187.663 E91.93044
G1 X56.329 Y187.345 E91.94658
G1 X56.113 Y186.98 E91.96274
G1 X55.97 Y186.581 E91.97888
G1 X55.9 Y186.024 E92.00026
G1 X55.9 Y36.024 E97.71397
G1 X55.94 Y35.602 E97.73012
G1 X56.058 Y35.195 E97.74626
G1 X56.251 Y34.818 E97.76239
M204 S625
M205 X30 Y30
G0 F6666.7 X56.957 Y35.392
M204 S500
M205 X25 Y25
G1 F1200 X57.145 Y35.123 E97.77489
G1 X57.392 Y34.907 E97.78739
G1 X57.683 Y34.757 E97.79986
G1 X58.15 Y34.674 E97.81793
G1 X107.901 Y34.674 E99.71301
G1 X108.227 Y34.714 E99.72552
G1 X108.533 Y34.831 E99.738
G1 X108.802 Y35.019 E99.7505
G1 X109.018 Y35.266 E99.763
G1 X109.168 Y35.557 E99.77547
G1 X109.251 Y36.024 E99.79354
G1 X109.251 Y186.024 E105.50725
G1 X109.211 Y186.35 E105.51976
G1 X109.094 Y186.656 E105.53224
G1 X108.906 Y186.925 E105.54474
G1 X108.659 Y187.141 E105.55724
G1 X108.368 Y187.291 E105.56971
G1 X107.901 Y187.374 E105.58778
G1 X58.15 Y187.374 E107.48286
G1 X57.824 Y187.334 E107.49537
G1 X57.518 Y187.217 E107.50785
G1 X57.249 Y187.029 E107.52035
G1 X57.033 Y186.782 E107.53285
G1 X56.883 Y186.491 E107.54532
G1 X56.8 Y186.024 E107.56339
G1 X56.8 Y36.024 E113.27709
G1 X56.84 Y35.698 E113.2896
G1 X56.957 Y35.392 E113.30208
M204 S625
M205 X30 Y30
G0 F6666.7 X57.74 Y35.84
M204 S500
M205 X25 Y25
G1 F1200 X57.851 Y35.687 E113.30928
G1 X58.015 Y35.595 E113.31645
G1 X58.15 Y35.574 E113.32165
G1 X107.901 Y35.574 E115.21673
G1 X108.085 Y35.614 E115.22391
G1 X108.238 Y35.725 E115.23111
G1 X108.33 Y35.889 E115.23827
G1 X108.351 Y36.024 E115.24347
G1 X108.351 Y186.024 E120.95718
G1 X108.311 Y186.208 E120.96435
G1 X108.2 Y186.361 E120.97155
G1 X108.036 Y186.453 E120.97872
G1 X107.901 Y186.474 E120.98392
G1 X58.15 Y186.474 E122.879
G1 X57.966 Y186.434 E122.88618
G1 X57.813 Y186.323 E122.89338
G1 X57.721 Y186.159 E122.90054
G1 X57.7 Y186.024 E122.90574
G1 X57.7 Y36.024 E128.61945
G1 X57.74 Y35.84 E128.62662
M204 S625
M205 X30 Y30
G1 F1500 E123.62662
G0 F6666.7 X57.74 Y32.984
G0 X110.929 Y32.996
G0 X132.299 Y39.575
M204 S500
M205 X25 Y25
G1 F900 E128.62662
G1 F1200 X132.418 Y38.85 E128.65461
G1 X132.616 Y38.142 E128.68261
G1 X132.889 Y37.46 E128.71059
G1 X133.235 Y36.812 E128.73858
G1 X133.649 Y36.205 E128.76656
G1 X134.126 Y35.647 E128.79453
G1 X134.662 Y35.144 E128.82253
G1 X135.249 Y34.702 E128.85052
G1 X135.88 Y34.327 E128.87847
G1 X136.548 Y34.022 E128.90645
G1 X137.246 Y33.792 E128.93444
G1 X137.965 Y33.639 E128.96244
G1 X139.009 Y33.558 E129.00233
G1 X188.76 Y33.558 E130.89741
G1 X189.493 Y33.598 E130.92538
G1 X190.218 Y33.717 E130.95336
G1 X190.926 Y33.915 E130.98136
G1 X191.608 Y34.188 E131.00935
G1 X192.256 Y34.534 E131.03733
G1 X192.863 Y34.948 E131.06532
G1 X193.421 Y35.425 E131.09328
G1 X193.924 Y35.961 E131.12128
G1 X194.366 Y36.548 E131.14927
G1 X194.741 Y37.179 E131.17723
G1 X195.046 Y37.847 E131.2052
G1 X195.276 Y38.545 E131.23319
G1 X195.429 Y39.264 E131.26119
G1 X195.51 Y40.309 E131.30112
G1 X195.491 Y190.309 E137.01483
G1 X195.451 Y191.042 E137.04279
G1 X195.331 Y191.767 E137.07078
G1 X195.134 Y192.475 E137.09877
G1 X194.861 Y193.156 E137.12672
G1 X194.515 Y193.805 E137.15473
G1 X194.101 Y194.411 E137.18269
G1 X193.623 Y194.969 E137.21068
G1 X193.088 Y195.472 E137.23865
G1 X192.501 Y195.914 E137.26664
G1 X191.869 Y196.289 E137.29463
G1 X191.201 Y196.594 E137.3226
G1 X190.503 Y196.824 E137.3506
G1 X189.785 Y196.977 E137.37856
G1 X188.741 Y197.058 E137.41845
G1 X139.009 Y197.058 E139.31281
G1 X138.276 Y197.018 E139.34077
G1 X137.551 Y196.899 E139.36876
G1 X136.843 Y196.701 E139.39676
G1 X136.161 Y196.428 E139.42474
G1 X135.513 Y196.082 E139.45272
G1 X134.906 Y195.668 E139.48071
G1 X134.348 Y195.191 E139.50867
G1 X133.845 Y194.655 E139.53667
G1 X133.403 Y194.068 E139.56466
G1 X133.028 Y193.437 E139.59262
G1 X132.723 Y192.769 E139.62059
G1 X132.493 Y192.071 E139.64859
G1 X132.34 Y191.352 E139.67659
G1 X132.259 Y190.308 E139.71648
G1 X132.259 Y40.308 E145.43018
G1 X132.299 Y39.575 E145.45815
M204 S625
M205 X30 Y30
G0 F6666.7 X133.199 Y39.625
M204 S500
M205 X25 Y25
G1 F1200 X133.318 Y38.952 E145.48418
G1 X133.515 Y38.297 E145.51023
G1 X133.788 Y37.67 E145.53628
G1 X134.131 Y37.079 E145.56231
G1 X134.541 Y36.532 E145.58835
G1 X135.012 Y36.036 E145.6144
G1 X135.538 Y35.599 E145.64045
G1 X136.112 Y35.226 E145.66653
G1 X136.724 Y34.923 E145.69254
G1 X137.368 Y34.693 E145.71859
G1 X138.035 Y34.54 E145.74466
G1 X139.009 Y34.458 E145.78189
G1 X188.76 Y34.458 E147.67697
G1 X189.443 Y34.498 E147.70303
G1 X190.116 Y34.617 E147.72907
G1 X190.771 Y34.814 E147.75512
G1 X191.398 Y35.087 E147.78117
G1 X191.989 Y35.43 E147.8072
G1 X192.536 Y35.84 E147.83324
G1 X193.032 Y36.311 E147.85929
G1 X193.469 Y36.837 E147.88534
G1 X193.842 Y37.411 E147.91142
G1 X194.145 Y38.023 E147.93743
G1 X194.375 Y38.667 E147.96348
G1 X194.528 Y39.334 E147.98954
G1 X194.61 Y40.309 E148.02681
G1 X194.591 Y190.309 E153.74052
G1 X194.551 Y190.991 E153.76654
G1 X194.432 Y191.665 E153.79261
G1 X194.234 Y192.319 E153.81864
G1 X193.962 Y192.947 E153.84471
G1 X193.618 Y193.538 E153.87076
G1 X193.208 Y194.085 E153.8968
G1 X192.737 Y194.581 E153.92285
G1 X192.211 Y195.018 E153.9489
G1 X191.638 Y195.39 E153.97492
G1 X191.025 Y195.694 E154.00099
G1 X190.381 Y195.923 E154.02702
G1 X189.714 Y196.076 E154.05309
G1 X188.741 Y196.158 E154.09028
G1 X139.009 Y196.158 E155.98464
G1 X138.326 Y196.118 E156.01071
G1 X137.653 Y195.999 E156.03674
G1 X136.998 Y195.802 E156.06279
G1 X136.371 Y195.529 E156.08884
G1 X135.78 Y195.186 E156.11487
G1 X135.233 Y194.776 E156.14091
G1 X134.737 Y194.305 E156.16696
G1 X134.3 Y193.779 E156.19301
G1 X133.927 Y193.205 E156.21909
G1 X133.624 Y192.593 E156.2451
G1 X133.394 Y191.949 E156.27115
G1 X133.241 Y191.282 E156.29722
G1 X133.159 Y190.308 E156.33445
G1 X133.159 Y40.308 E162.04816
G1 X133.199 Y39.625 E162.07422
M204 S625
M205 X30 Y30
G0 F6666.7 X134.099 Y39.68
M204 S500
M205 X25 Y25
G1 F1200 X134.218 Y39.063 E162.09815
G1 X134.415 Y38.465 E162.12213
G1 X134.686 Y37.898 E162.14607
G1 X135.026 Y37.369 E162.17003
G1 X135.431 Y36.887 E162.19401
G1 X135.894 Y36.461 E162.21797
G1 X136.407 Y36.097 E162.24193
G1 X136.961 Y35.801 E162.26586
G1 X137.549 Y35.578 E162.28981
G1 X138.161 Y35.431 E162.31379
G1 X139.009 Y35.358 E162.34621
G1 X188.76 Y35.358 E164.24129
G1 X189.388 Y35.398 E164.26526
G1 X190.005 Y35.517 E164.2892
